src/lib/packages/icons/src/assets/line/code-square.svg

<svg width="24" height="24" viewBox="0 0 24 24" fill="none" xmlns="http://www.w3.org/2000/svg">
<path d="M17.625 2.25H6.375C3.715 2.25 2.25 3.715 2.25 6.375V17.625C2.25 20.285 3.715 21.75 6.375 21.75H17.625C20.285 21.75 21.75 20.285 21.75 17.625V6.375C21.75 3.715 20.285 2.25 17.625 2.25ZM20.25 17.625C20.25 19.465 19.465 20.25 17.625 20.25H6.375C4.535 20.25 3.75 19.465 3.75 17.625V6.375C3.75 4.535 4.535 3.75 6.375 3.75H17.625C19.465 3.75 20.25 4.535 20.25 6.375V17.625ZM9.75201 10.308L8.061 12L9.75299 13.692C10.046 13.985 10.046 14.46 9.75299 14.753C9.60699 14.899 9.41499 14.973 9.22299 14.973C9.03099 14.973 8.83899 14.9 8.69299 14.753L6.47101 12.531C6.17801 12.238 6.17801 11.763 6.47101 11.47L8.69299 9.24799C8.98599 8.95499 9.461 8.95499 9.754 9.24799C10.045 9.53999 10.045 10.015 9.75201 10.308ZM17.53 11.47C17.823 11.763 17.823 12.238 17.53 12.531L15.308 14.753C15.162 14.899 14.97 14.973 14.778 14.973C14.586 14.973 14.394 14.9 14.248 14.753C13.955 14.46 13.955 13.985 14.248 13.692L15.94 12L14.248 10.308C13.955 10.015 13.955 9.54001 14.248 9.24701C14.541 8.95401 15.016 8.95401 15.309 9.24701L17.53 11.47ZM13.728 8.18201L11.728 16.182C11.643 16.523 11.337 16.75 11.001 16.75C10.941 16.75 10.88 16.743 10.818 16.727C10.416 16.627 10.172 16.219 10.273 15.818L12.273 7.81799C12.373 7.41599 12.776 7.172 13.183 7.272C13.584 7.373 13.828 7.78001 13.728 8.18201Z" fill="currentColor"/>
</svg>

<svg xmlns="http://www.w3.org/2000/svg" width="24" height="24" fill="none"><path fill="currentColor" d="M17.625 2.25H6.375c-2.66 0-4.125 1.465-4.125 4.125v11.25c0 2.66 1.465 4.125 4.125 4.125h11.25c2.66 0 4.125-1.465 4.125-4.125V6.375c0-2.66-1.465-4.125-4.125-4.125Zm2.625 15.375c0 1.84-.785 2.625-2.625 2.625H6.375c-1.84 0-2.625-.785-2.625-2.625V6.375c0-1.84.785-2.625 2.625-2.625h11.25c1.84 0 2.625.785 2.625 2.625v11.25ZM9.752 10.308 8.061 12l1.692 1.692a.75.75 0 0 1-1.06 1.061l-2.222-2.222a.75.75 0 0 1 0-1.061l2.222-2.222a.75.75 0 1 1 1.059 1.06Zm7.778 1.162a.75.75 0 0 1 0 1.061l-2.222 2.222a.748.748 0 0 1-1.06 0 .75.75 0 0 1 0-1.061L15.94 12l-1.692-1.692a.75.75 0 1 1 1.061-1.061l2.221 2.223Zm-3.802-3.288-2 8a.75.75 0 1 1-1.455-.364l2-8a.748.748 0 0 1 .91-.546.751.751 0 0 1 .545.91Z"/></svg>
